src/static/logos/pkg.svg

<?xml version="1.0" encoding="UTF-8"?>
<svg width="256px" height="256px" viewBox="0 0 256 256" version="1.1" xmlns="http://www.w3.org/2000/svg" xmlns:xlink="http://www.w3.org/1999/xlink" preserveAspectRatio="xMidYMid">
    <defs>
        <linearGradient x1="29.6292991%" y1="10.4545048%" x2="81.6360523%" y2="111.467622%" id="linearGradient-1">
            <stop stop-color="#3023AE" offset="0%"></stop>
            <stop stop-color="#C86DD7" offset="100%"></stop>
        </linearGradient>
    </defs>
    <g>
        <path d="M92.2095353,8 L164.227118,8 C210.726659,8 248.436654,45.709994 248.436654,92.2095353 L248.436654,164.227118 C248.436654,210.726659 210.726659,248.436654 164.227118,248.436654 L92.2095353,248.436654 C45.709994,248.436654 8,210.726659 8,164.227118 L8,92.2095353 C8,45.709994 45.709994,8 92.2095353,8 Z" fill="#000000"></path>
        <path d="M97.1340054,15.0460601 C51.7894894,15.0460601 15.0461057,51.7893325 15.0461057,97.1337112 L15.0461057,158.865514 C15.0461057,204.209893 51.7894894,240.953165 97.1340054,240.953165 L158.865995,240.953165 C204.210511,240.953165 240.953894,204.209893 240.953894,158.865514 L240.953894,97.1337112 C240.953894,51.7893325 204.210511,15.0460601 158.865995,15.0460601 L97.1340054,15.0460601 Z M97.1340054,0 L158.865995,0 C212.520246,0 256,43.479623 256,97.1337112 L256,158.865514 C256,212.519602 212.520246,255.999225 158.865995,255.999225 L97.1340054,255.999225 C43.4797547,255.999225 0,212.519602 0,158.865514 L0,97.1337112 C0,43.479623 43.4797547,0 97.1340054,0 Z" fill="url(#linearGradient-1)"></path>
        <path d="M125.450687,191.027164 L59,164.839702 L126.105373,65 L125.450687,191.027164 Z M118.914808,88.3704553 L69.7713281,161.486365 L118.43536,180.664309 L118.914808,88.3704553 Z M136.508431,180.650058 L185.446712,161.218682 L136.028643,88.2910453 L136.508431,180.650058 Z M128.838903,65.07941 L196.236755,164.540318 L129.493252,191.041415 L128.838903,65.07941 Z" fill="#FFFFFF"></path>
    </g>
</svg>

<svg width="256" height="256" xmlns="http://www.w3.org/2000/svg" preserveAspectRatio="xMidYMid"><defs><linearGradient x1="29.629%" y1="10.455%" x2="81.636%" y2="111.468%" id="a"><stop stop-color="#3023AE" offset="0%"/><stop stop-color="#C86DD7" offset="100%"/></linearGradient></defs><path d="M92.21 8h72.017c46.5 0 84.21 37.71 84.21 84.21v72.017c0 46.5-37.71 84.21-84.21 84.21H92.21c-46.5 0-84.21-37.71-84.21-84.21V92.21C8 45.71 45.71 8 92.21 8z"/><path d="M97.134 15.046c-45.345 0-82.088 36.743-82.088 82.088v61.732c0 45.344 36.743 82.087 82.088 82.087h61.732c45.345 0 82.088-36.743 82.088-82.087V97.134c0-45.345-36.743-82.088-82.088-82.088H97.134zm0-15.046h61.732C212.52 0 256 43.48 256 97.134v61.732c0 53.654-43.48 97.133-97.134 97.133H97.134C43.48 256 0 212.52 0 158.866V97.134C0 43.48 43.48 0 97.134 0z" fill="url(#a)"/><path d="M125.45 191.027L59 164.84 126.105 65l-.654 126.027zM118.916 88.37L69.77 161.486l48.664 19.178.48-92.294zm17.593 92.28l48.939-19.431-49.418-72.928.48 92.36zm-7.67-115.57l67.399 99.46-66.744 26.501-.654-125.962z" fill="#FFF"/></svg>
